assets/image/twitter.svg

<svg width="36" height="36" xmlns="http://www.w3.org/2000/svg"><g stroke="#4C62A7" fill="none" fill-rule="evenodd"><path stroke-width="2" d="M1 1h34v34H1z"/><path d="M6 25.207a13.864 13.864 0 0 0 7.512 2.204c9.096 0 14.236-7.687 13.927-14.578a9.96 9.96 0 0 0 2.445-2.536c-.878.387-1.825.648-2.813.771a4.92 4.92 0 0 0 2.153-2.71 9.874 9.874 0 0 1-3.111 1.187A4.892 4.892 0 0 0 22.536 8c-3.162 0-5.488 2.949-4.775 6.017A13.925 13.925 0 0 1 7.663 8.892a4.912 4.912 0 0 0 1.516 6.546 4.878 4.878 0 0 1-2.22-.615c-.051 2.275 1.574 4.391 3.931 4.865a4.868 4.868 0 0 1-2.212.086 4.9 4.9 0 0 0 4.576 3.404A9.855 9.855 0 0 1 6 25.207z" stroke-width="1.2"/></g></svg>

<?xml version="1.0" encoding="UTF-8"?>
<svg width="36px" height="36px" viewBox="0 0 36 36" version="1.1" xmlns="http://www.w3.org/2000/svg" xmlns:xlink="http://www.w3.org/1999/xlink">
    <!-- Generator: Sketch 46 (44423) - http://www.bohemiancoding.com/sketch -->
    <title>Slice</title>
    <desc>Created with Sketch.</desc>
    <defs></defs>
    <g id="Page-1" stroke="none" stroke-width="1" fill="none" fill-rule="evenodd">
        <g id="twitter" stroke="#4C62A7">
            <rect id="Rectangle" stroke-width="2" x="1" y="1" width="34" height="34"></rect>
            <path d="M6,25.207 C8.168,26.598 10.744,27.411 13.512,27.411 C22.608,27.411 27.748,19.724 27.439,12.833 C28.396,12.143 29.227,11.279 29.884,10.297 C29.006,10.684 28.059,10.945 27.071,11.068 C28.081,10.46 28.858,9.503 29.224,8.358 C28.277,8.915 27.229,9.327 26.113,9.545 C25.218,8.592 23.945,8 22.536,8 C19.374,8 17.048,10.949 17.761,14.017 C13.691,13.809 10.08,11.858 7.663,8.892 C6.38,11.097 6.998,13.978 9.179,15.438 C8.376,15.412 7.619,15.191 6.959,14.823 C6.908,17.098 8.533,19.214 10.89,19.688 C10.201,19.877 9.446,19.922 8.678,19.774 C9.3,21.72 11.11,23.141 13.254,23.178 C11.195,24.791 8.6,25.514 6,25.207 Z" stroke-width="1.2"></path>
        </g>
    </g>
</svg>
